X:44
T:Wir sind des Geyers schwarze Haufen (var)
Z:http://unionsong.com/u079.html
M:4/4
L:1/8
Q:1/4=120
% Last note suggests minor mode tune
K:F % 1 flats
C:Weise - Fritz Sotke, 1919 (Wandervogel) / Worte: Heinrich von Reder 1885
%%MIDI program 0
A| D3 E FE FG | A2 B2 A4 | B4 d2 B2 | A6 A2 | 
G2 B2 A2 G2 | F2 E2 D4 | D4 A2 E2 | D8 | 
D3 F A4 | B2 d2 A4 | GF EF G2 AB | A2 A2 AG FE | 
D3 F A4 | B2 d2 A4 | GF EF G2 AB | A2 A2 D2 z2 |]
W:1. Wir sind des Geyers schwarze Haufen,
W:Hei a ho ho!
W:Und wollen mit Tyrannen raufen,
W:Hei a ho ho!
W:
W:Spieß voran,
W:Drauf und dran,
W:Setzt aufs Klosterdach den roten Hahn!
W:Spieß voran,
W:Drauf und dran,
W:Setzt aufs Klosterdach den Hahn! 
W:
W:2. Als Adam grub und Eva spann,
W:Kyrieleis!
W:Wo war denn da der Edelmann?
W:Kyrieleis!
W:Spieß voran . . . .
W:
W:3. Uns führt der Florian Geyer an,
W:Heia hoho!
W:Den Bundschuh führt er in der Fahn',
W:Heia hoho!
W:Spieß voran . . . .
W:
W:4. Jetzt geht's auf Schloß, Abtei und Stift,
W:Heia hoho!
W:Bei uns gibt's nur die Heil'ge Schrift,
W:Heia hoho!
W:Spieß voran . . . .
W:
W:5. Bei Weinsberg setzt' es Brand und Stank,
W:Heia hoho!
W:Gar mancher über die Klinge sprang,
W:Heia hoho!
W:Spieß voran . . . .
W:
W:6. Des Edelmannes Töchterlein,
W:Kyrieleis!
W:Wir schicktens in die Höll' hinein,
W:Kyrieleis!
W:Spieß voran . . . .
W:
W:7. Geschlagen ziehen wir nach Haus,
W:Heia hoho!
W:Unsre Enkel fechten's besser aus,
W:Heia hoho!
W:Spieß voran . . . . 


